X:651
T:Tsizikpolkka
C:trad sov. Hakala-Reiman
N:original url: www.wolfram.claranet.de
D:ottopasuuna
M:C
L:1/8
Q:1/4=112
K:Dmix
P:I
FBBF GFED| CEEG F/G/F/E/ DE| FFBF {F}GFED| CEEG F/G/F/E/ D2-|
DF[FB](F G)FPED| CEEG F/G/F/E/ DE| FFBF ({F}GF)ED| (CE)(EG) F/G/F/E/ D2|
|:F2FE/F/ GFPED| CEEG F/G/F/E/ DE| DFFE/F/ GFPED| CEEG F/G/F/E/ D2 :|
P:II
BGBG/B/ edB2| BGBG/B/ cA AG/A/| BGBG/B/ edB2| BGB>A GFE2 :|
{e}g>f eB| d/e/d/c/ BG| EFGB PAG/F/GE| {e}g>f eB| {c}d>{cd}c BG| EFGB A/G/F/G/E2 :|
